!!!!SEGMENT: pl-kk--kk-i-7--056-004_certon-pierre--missa-regnum-mundi-agnus-dei.krn
!!!cenid: 16xx:890
!!!COM: Certon, Pierre
!!!COM-rismID: pe30006023
!!!CDT: ~1510-1572/02/23
!!!CNT: French
!!!OPR: Missa Regnum Mundi
!!!OTL: Agnus Dei
!!!OMV: 004
!!!PDT:
!!!AGN: Sacred; Mass
!!!YEC: Copyright 2022 Narodowy Instytut Fryderyka Chopina (https://polishscores.org)
!!!YEM: License CC-BY-4.0 (https://creativecommons.org/licenses/by/4.0)
!!!SMS-siglum: PL-Kk
!!!SMS-shelfmark: Kk.I.7
!!!SMS-shelfwork: 056-004 M
!!!SMS-variant:
!!!SMS-altvar:
!!!NIFC-rismSourceID: 300258077
!!!NIFC-rismChildID: 300258133
!!!NIFC-islandoraID: pl-kk:1956
!!!URL-pdf-islandora: https://repozytorium.nifc.pl/islandora/object/pl-kk%3A1956/datastream/PDF/view
!!!URL-scan: https://polish.musicsources.pl/pl/lokalizacje/galeria/rekopisy/6140 @EN{Scan on Polish Music Sources Website} @PL{Skany w portalu Dziedzictwo Muzyki Polskiej w otwartym dostępie}
!!!IIIF: https://repozytorium.nifc.pl/islandora/object/pl-kk%3A1956/datastream/IIIF/view
!!!ONB-nifc: UWAGA: C (skan 0054-0055, s.100-103), A (0138-0139, s.96-99), T(0214-0216, s.91-94), B(0301-0302, s.89-91). Części Mszy: 1. Kyrie, 2. Et in terra, 3. Sanctus, 4. Agnus Dei. Agnus III" rozpisany na 5 głosów. Dodatkowy głos zapisany w księdze T na stronie 94
!!!AIN: 1 alto 1 bass 2 tenor 1 vox
!!!key:
**kern	**text	**kern	**text	**kern	**text	**kern	**text	**kern	**text
*group1	*	*group1	*	*group1	*	*group1	*	*group1	*
*part5	*	*part4	*	*part3	*	*part2	*	*part1	*
*staff5	*	*staff4	*	*staff3	*	*staff2	*	*staff1	*
*Ibass	*	*Itenor	*	*Itenor	*	*Ialto	*	*Ivox	*
*I"BASVS.	*	*I"TENOR. 2do.	*	*I"TENOR. 1mo.	*	*I"ALTVS.	*	*I"CANTVS.	*
*I'B	*	*I'T II	*	*I'T I	*	*I'A	*	*I'S	*
*clefC4	*	*clefC3	*	*clefC3	*	*clefC2	*	*clefG2	*
*k[b-]	*	*k[b-]	*	*k[b-]	*	*k[b-]	*	*k[b-]	*
*g:	*	*g:	*	*g:	*	*g:	*	*g:	*
*M2/1	*	*M2/1	*	*M2/1	*	*M2/1	*	*M2/1	*
*met(C|)	*	*met(C|)	*	*met(C|)	*	*met(C|)	*	*met(C|)	*
=1-	=1-	=1-	=1-	=1-	=1-	=1-	=1-	=1-	=1-
*xywh-#302:7163,2145,5898,902	*	*	*	*xywh-#215:7104,4050,6070,988	*	*xywh-#139:1465,1749,5848,775	*	*xywh-#55:1202,2176,6059,783	*
!	!	!LO:TX:t=P:problem=partia wyłącznie w III Agnus Dei	!	!	!	!LO:TX:t=P:problem=przy kluczu B- b-	!	!	!
0G	A-	0ryy	.	0G	A-	0d	A-	0g	A-
=2-	=2-	=2-	=2-	=2-	=2-	=2-	=2-	=2-	=2-
!LO:TX:t=P:problem=kreska pseudotaktowa	!	!	!	!LO:TX:t=P:problem=kreska pseudotaktowa	!	!LO:TX:t=P:problem=kreska pseudotaktowa	!	!LO:TX:t=P:problem=kreska pseudotaktowa	!
1F	.	0ryy	.	1B-	-gnus	1d	-gn(us)	1g	-gnus
1E	-gnus	.	.	1c	.	1G	De-	1g	De-
=3-	=3-	=3-	=3-	=3-	=3-	=3-	=3-	=3-	=3-
!LO:TX:t=P:problem=kreska pseudotaktowa	!	!	!	!	!	!	!	!	!
*	*	*	*	*2\right	*	*	*	*	*
!	!	!	!	!	!	!LO:TX:t=P:problem=kreska pseudotaktowa	!	!	!
1D	De-	0ryy	.	2.d\	De-	1A	-i	2.f/	.
!	!	!	!	!LO:TX:t=P:problem=kreska pseudotaktowa	!	!	!	!	!
.	.	.	.	4e\	.	.	.	4g/	.
1.G	.	.	.	2f\	.	1re	.	2a/	.
.	.	.	.	2.d\	.	.	.	1b-\	.
=4-	=4-	=4-	=4-	=4-	=4-	=4-	=4-	=4-	=4-
.	.	0ryy	.	.	.	1.d	A-	.	.
.	.	.	.	4c/	.	.	.	.	.
2F/	.	.	.	4B-/	.	.	.	1a	.
.	.	.	.	4A/	.	.	.	.	.
!LO:TX:t=P:problem=kreska pseudotaktowa	!	!	!	!	!	!	!	!	!
1G	-i	.	.	1B-	.	.	.	.	.
.	.	.	.	.	.	2e/	-gn(us)	2g/	.
=5-	=5-	=5-	=5-	=5-	=5-	=5-	=5-	=5-	=5-
!	!	!	!	!LO:TX:t=P:problem=kreska pseudotaktowa	!	!	!	!	!
*	*	*	*	*	*	*2\right	*	*	*
!	!	!	!	!	!	!	!	!LO:TX:t=P:problem=kreska pseudotaktowa	!
1.D	A-	0ryy	.	1A	-i	2.f\	De-	1a	-i
.	.	.	.	.	.	4e\	.	.	.
.	.	.	.	1rc	.	2f\	.	0r	.
!LO:TX:t=P:problem=kreska pseudotaktowa	!	!	!	!	!	!LO:TX:t=P:problem=kreska pseudotaktowa	!	!	!
2E/	.	.	.	.	.	2g\	.	.	.
=6-	=6-	=6-	=6-	=6-	=6-	=6-	=6-	=6-	=6-
2.F/	.	0ryy	.	1.A	A-	1.a	.	.	.
4E/	.	.	.	.	.	.	.	.	.
!	!	!	!	!	!	!	!	!LO:TX:t=P:problem=kreska pseudotaktowa	!
2F/	-gn(us)	.	.	.	.	.	.	1rb	.
!LO:TX:t=P:problem=kreska pseudotaktowa	!	!	!	!	!	!	!	!	!
2G/	.	.	.	2B-/	.	4g\	.	.	.
.	.	.	.	.	.	4f\	.	.	.
=7-	=7-	=7-	=7-	=7-	=7-	=7-	=7-	=7-	=7-
2A/	De-	0ryy	.	2.c\	-gnus	2e\	.	1.a	A-
1F	.	.	.	.	.	1f	.	.	.
!	!	!	!	!LO:TX:t=P:problem=kreska pseudotaktowa	!	!	!	!	!
.	.	.	.	4B-/	.	.	.	.	.
.	.	.	.	2c\	De-	.	.	.	.
*	*	*	*	*	*	*	*	*2\right	*
4E/	.	.	.	2d\	.	2f\	-i	2b-\	.
!LO:TX:t=P:problem=kreska pseudotaktowa	!	!	!	!	!	!	!	!	!
4D/	.	.	.	.	.	.	.	.	.
=8-	=8-	=8-	=8-	=8-	=8-	=8-	=8-	=8-	=8-
1C	.	0ryy	.	1e	.	1g	A-	1cc	-gnus
!	!	!	!	!LO:TX:t=P:problem=kreska pseudotaktowa	!	!	!	!	!
2.D/	.	.	.	1d	.	1.f	-gn(us)	2b-\	.
.	.	.	.	.	.	.	.	1a/	.
4E/	.	.	.	.	.	.	.	.	.
=9-	=9-	=9-	=9-	=9-	=9-	=9-	=9-	=9-	=9-
2F/	.	0ryy	.	2c/	.	.	.	.	.
!LO:TX:t=P:problem=kreska pseudotaktowa	!	!	!	!LO:TX:t=P:problem=kreska pseudotaktowa	!	!	!	!	!
2G/	.	.	.	2B-/	.	2e/	De-	1g	De-
!	!	!	!	!	!	!LO:TX:t=P:problem=kreska pseudotaktowa	!	!	!
1D	.	.	.	1A	.	1d	-i	.	.
!	!	!	!	!	!	!	!	!LO:TX:t=P:problem=# above	!
.	.	.	.	.	.	.	.	2f#X/	.
=10-	=10-	=10-	=10-	=10-	=10-	=10-	=10-	=10-	=10-
!LO:TX:t=P:problem=kreska pseudotaktowa	!	!	!	!LO:TX:t=P:problem=kreska pseudotaktowa	!	!	!	!LO:TX:t=P:problem=kreska pseudotaktowa	!
0G	-i	0ryy	.	0G	-i,	2rc	.	1g	-i
.	.	.	.	.	.	2d/	Qui	.	.
.	.	.	.	.	.	1g	tol-	2rg	.
.	.	.	.	.	.	.	.	2g/	qui
=11-	=11-	=11-	=11-	=11-	=11-	=11-	=11-	=11-	=11-
!	!	!	!	!	!	!LO:TX:t=P:problem=kreska pseudotaktowa	!	!	!
00r	.	0ryy	.	00r	.	1g	-lis	2dd\	tol-
.	.	.	.	.	.	.	.	2ee\	-lis
!	!	!	!	!	!	!	!	!LO:LB:g=original	!
.	.	.	.	.	.	1f	pec-	2.ff\	pec-
.	.	.	.	.	.	.	.	4ee\	.
=12-	=12-	=12-	=12-	=12-	=12-	=12-	=12-	=12-	=12-
.	.	0ryy	.	.	.	1f	-ca-	4dd\	.
.	.	.	.	.	.	.	.	4cc\	.
.	.	.	.	.	.	.	.	2ff\	-ca-
.	.	.	.	.	.	2g\	-ta	2ee,<\	-ta
.	.	.	.	.	.	2.b-\	.	2.dd\	mun-
=13-	=13-	=13-	=13-	=13-	=13-	=13-	=13-	=13-	=13-
!	!	!	!	!LO:TX:t=P:problem=kreska pseudotaktowa	!	!	!	!	!
2rF	.	0ryy	.	1r	.	.	.	.	.
.	.	.	.	.	.	4a\	.	4cc\	.
2D/	qui	.	.	.	.	1a	mun-	4b-/	.
.	.	.	.	.	.	.	.	4a/	.
*	*	*	*	*xywh-#216:1131,547,6071,832	*	*	*	*	*
!	!	!	!	!LO:PB:g=original	!	!	!	!	!
1G	tol-	.	.	2rA	.	.	.	0b-	.
!	!	!	!	!LO:TX:t=P:problem=kreska pseudotaktowa	!	!	!	!	!
.	.	.	.	2G/	Qui	4g\	.	.	.
.	.	.	.	.	.	4f\	.	.	.
=14-	=14-	=14-	=14-	=14-	=14-	=14-	=14-	=14-	=14-
!LO:TX:t=P:problem=kreska pseudotaktowa	!	!	!	!	!	!	!	!	!
1G	-lis	0ryy	.	2d\	tol-	1g	.	.	.
.	.	.	.	2e\	-lis	.	.	.	.
!	!	!	!	!	!	!LO:TX:t=P:problem=kreska pseudotaktowa	!	!LO:TX:t=P:problem=kreska pseudotaktowa	!
1F	pec-	.	.	2.f\	pec-	1a	-di	0a	-di
!	!	!	!	!LO:TX:t=P:problem=kreska pseudotaktowa	!	!	!	!	!
.	.	.	.	4e\	.	.	.	.	.
=15-	=15-	=15-	=15-	=15-	=15-	=15-	=15-	=15-	=15-
1F	-ca-	0ryy	.	4d\	-ca-	1r	.	.	.
.	.	.	.	4c\	.	.	.	.	.
.	.	.	.	2f\	.	.	.	.	.
2G/	-ta	.	.	2e\	.	2r	.	1rb	.
*2\right	*	*	*	*	*	*	*	*	*
2.B-\	.	.	.	2.d\	.	2d/	qui	.	.
=16-	=16-	=16-	=16-	=16-	=16-	=16-	=16-	=16-	=16-
.	.	0ryy	.	.	.	1g	tol-	2rg	.
4A/	.	.	.	4c/	.	.	.	.	.
4G/	.	.	.	4B-/	-ta	.	.	2g/	qui-
4F/	.	.	.	4A/	.	.	.	.	.
!	!	!	!	!	!	!LO:TX:t=P:problem=kreska pseudotaktowa	!	!	!
1G	mun-	.	.	1B-	mun-	1g	-lis	2dd\	-tol-
!	!	!	!	!	!	!	!	!LO:TX:t=P:problem=kreska pseudotaktowa	!
.	.	.	.	.	.	.	.	2ee\	-lis
=17-	=17-	=17-	=17-	=17-	=17-	=17-	=17-	=17-	=17-
*	*	*	*	*	*	*	*	*xywh-#55:1227,2692,6026,766	*
!LO:TX:t=P:problem=kreska pseudotaktowa	!	!	!	!LO:TX:t=P:problem=kreska pseudotaktowa	!	!	!	!	!
0D	-di	0ryy	.	1A	-di	1f	pec-	2.ff\	pec-
.	.	.	.	.	.	.	.	4ee\	.
*	*	*	*	*	*	*custos:g	*	*	*
.	.	.	.	2r	.	1f	-ca-	4dd\	-ca-
.	.	.	.	.	.	.	.	4cc\	.
.	.	.	.	2d\	qui	.	.	2ff\	-ta
!	!	!	!	!	!	!LO:LB:g=original	!	!	!
=18-	=18-	=18-	=18-	=18-	=18-	=18-	=18-	=18-	=18-
*	*	*	*	*	*	*xywh-#139:1336,2225,6055,799	*	*	*
!	!	!	!	!	!	!LO:TX:t=P:problem=przy kluczu b- B-	!	!	!
0r	.	0ryy	.	1g	tol-	4g\	.	2ee,<\	.
.	.	.	.	.	.	4f\	.	.	.
.	.	.	.	.	.	4e/	-ta	1dd	mun-
.	.	.	.	.	.	4d/	.	.	.
!	!	!	!	!LO:TX:t=P:problem=kreska pseudotaktowa	!	!	!	!	!
.	.	.	.	1g	-lis	1e	.	.	.
.	.	.	.	.	.	.	.	2cc\	.
=19-	=19-	=19-	=19-	=19-	=19-	=19-	=19-	=19-	=19-
!LO:TX:t=P:problem=kreska pseudotaktowa	!	!	!	!	!	!	!	!	!
1r	.	0ryy	.	1f	.	1.d	.	2.dd\	.
.	.	.	.	.	.	.	.	8cc\L	.
.	.	.	.	.	.	.	.	8b-\J	.
!LO:TX:t=P:problem=kreska pseudotaktowa	!	!	!	!	!	!	!	!	!
1D	Qui	.	.	1f	pe-	.	.	4a/	.
.	.	.	.	.	.	.	.	4g/	.
!	!	!	!	!	!	!LO:TX:t=P:problem=kreska pseudotaktowa	!	!	!
.	.	.	.	.	.	2f\	.	2a/	.
!LO:LB:g=original	!	!	!	!	!	!	!	!	!
=20-	=20-	=20-	=20-	=20-	=20-	=20-	=20-	=20-	=20-
*xywh-#302:7183,2670,5749,783	*	*	*	*	*	*	*	*	*
!	!	!	!	!LO:TX:t=P:problem=kreska pseudotaktowa	!	!	!	!	!
1.G	tol-	0ryy	.	1g	-ca-	2e/	.	2g/	.
.	.	.	.	.	.	1d	.	1b-	.
.	.	.	.	1e	-ta	.	.	.	.
2A/	-lis	.	.	.	.	2c/	.	4a/	.
!	!	!	!	!	!	!	!	!LO:TX:t=P:problem=kreska pseudotaktowa	!
.	.	.	.	.	.	.	.	4g/	.
=21-	=21-	=21-	=21-	=21-	=21-	=21-	=21-	=21-	=21-
*	*	*	*	*	*ij	*	*	*	*
1B-	pec-	0ryy	.	2.d\	pec-	4d/	mun-	2fny/	-di
.	.	.	.	.	.	4e/	.	.	.
.	.	.	.	.	.	4f/	.	1ff	.
.	.	.	.	4e\	.	4g/	.	.	.
2A\	.	.	.	2f\	-ca-	2a\	.	.	.
2G/	.	.	.	2.g\	-ta	1b-\	.	2.ee\	mun-
*	*	*	*	*	*Xij	*	*	*	*
=22-	=22-	=22-	=22-	=22-	=22-	=22-	=22-	=22-	=22-
1B-	-ca-	0ryy	.	.	.	.	.	.	.
.	.	.	.	4f\	.	.	.	4dd\	.
.	.	.	.	4e\	.	2g\	.	1dd	.
.	.	.	.	4d\	.	.	.	.	.
!LO:TX:t=P:problem=kreska pseudotaktowa	!	!	!	!	!	!	!	!	!
1A	-ta	.	.	1e	mun-	1a	.	.	.
.	.	.	.	.	.	.	.	2cc\	.
=23-	=23-	=23-	=23-	=23-	=23-	=23-	=23-	=23-	=23-
!	!	!	!	!LO:TX:t=P:problem=kreska pseudotaktowa	!	!LO:TX:t=P:problem=kreska pseudotaktowa	!	!LO:TX:t=P:problem=kreska pseudotaktowa	!
2.B-\	.	0ryy	.	0d	-di	1f	-di	00dd	-di
4A/	.	.	.	.	.	.	.	.	.
4G/	.	.	.	.	.	2r	.	.	.
4F/	.	.	.	.	.	.	.	.	.
1G/	mun-	.	.	.	.	2g\	mi-	.	.
=24-	=24-	=24-	=24-	=24-	=24-	=24-	=24-	=24-	=24-
.	.	0ryy	.	2r	.	2g\	-ſe-	.	.
4F/	.	.	.	2d\	mi-	2g\	-re-	.	.
4E/	.	.	.	.	.	.	.	.	.
!LO:TX:t=P:problem=kreska pseudotaktowa	!	!	!	!	!	!	!	!	!
0D	-di	.	.	2d\	-ſe-	1b-	-re	.	.
.	.	.	.	2d\	-re-	.	.	.	.
=25-	=25-	=25-	=25-	=25-	=25-	=25-	=25-	=25-	=25-
.	.	0ryy	.	1f	-re	1a	no-	00r	.
!	!	!	!	!	!	!LO:TX:t=P:problem=kreska pseudotaktowa	!	!	!
2rF	.	.	.	1e	no-	1g	-bis	.	.
!LO:TX:t=P:problem=kreska pseudotaktowa	!	!	!	!	!	!	!	!	!
2G/	mi-	.	.	.	.	.	.	.	.
=26-	=26-	=26-	=26-	=26-	=26-	=26-	=26-	=26-	=26-
!	!	!	!	!LO:TX:t=P:problem=kreska pseudotaktowa	!	!	!	!	!
2G/	-ſe-	0ryy	.	1d	-bis	2r	.	.	.
2G/	-re-	.	.	.	.	2g\	mi-	.	.
!LO:TX:t=P:problem=kreska pseudotaktowa	!	!	!	!	!	!	!	!	!
1B-	-re	.	.	2r	.	2f\	-ſe-	.	.
.	.	.	.	2d\	mi-	2d/	.	.	.
=27-	=27-	=27-	=27-	=27-	=27-	=27-	=27-	=27-	=27-
!	!	!	!	!	!	!	!	!LO:TX:t=P:problem=kreska pseudotaktowa	!
1A	no-	0ryy	.	2c\	-ſe-	4e/	-re-	1rb	.
.	.	.	.	.	.	4d/	.	.	.
!	!	!	!	!LO:TX:t=P:problem=kreska pseudotaktowa	!	!	!	!	!
.	.	.	.	2A/	-re-	4e/	.	.	.
!	!	!	!	!	!	!LO:TX:t=P:problem=kreska pseudotaktowa	!	!	!
.	.	.	.	.	.	4f/	.	.	.
*	*	*	*	*xywh-#216:1329,1091,5882,799	*	*	*	*	*
!LO:TX:t=P:problem=kreska pseudotaktowa	!	!	!	!LO:LB:g=original	!	!	!	!	!
1G	-bis	.	.	2.B-/	.	2g,<\	-re	2rg	.
.	.	.	.	.	.	2.G/	no-	2g/	mi-
.	.	.	.	4c/	.	.	.	.	.
=28-	=28-	=28-	=28-	=28-	=28-	=28-	=28-	=28-	=28-
2rF	.	0ryy	.	2d\	-re	.	.	2g/	-ſe-
.	.	.	.	.	.	4A/	.	.	.
!LO:TX:t=P:problem=kreska pseudotaktowa	!	!	!	!	!	!	!	!	!
*	*ij	*	*	*	*	*	*	*	*
2G/	mi-	.	.	2d\	no-	4B-/	.	2g/	-re-
.	.	.	.	.	.	4c/	.	.	.
2G/	-ſe-	.	.	2G,</	-bis	4d/	.	1b-	-re
.	.	.	.	.	.	4c/	.	.	.
!LO:TX:t=P:problem=kreska pseudotaktowa	!	!	!	!	!	!	!	!	!
2G/	-re-	.	.	2d\	mi-	4d/	.	.	.
!	!	!	!	!	!	!LO:TX:t=P:problem=kreska pseudotaktowa	!	!	!
.	.	.	.	.	.	4e/	.	.	.
=29-	=29-	=29-	=29-	=29-	=29-	=29-	=29-	=29-	=29-
!	!	!	!	!	!	!	!	!LO:TX:t=P:problem=kreska pseudotaktowa	!
4F/	-re	0ryy	.	2d\	-ſe-	2f\	.	1a	.
4G/	.	.	.	.	.	.	.	.	.
!	!	!	!	!LO:TX:t=P:problem=kreska pseudotaktowa	!	!	!	!	!
4A/	.	.	.	2c\	-re-	1e	.	.	.
!LO:TX:t=P:problem=kreska pseudotaktowa	!	!	!	!	!	!	!	!	!
4F/	.	.	.	.	.	.	.	.	.
*	*	*	*	*	*	*	*	*	*ij
4G/	.	.	.	2B-/	.	.	.	2g/	mi-
4F/	.	.	.	.	.	.	.	.	.
4E/	.	.	.	2.G/	.	1d/	.	2g/	-ſe-
!LO:TX:t=P:problem=kreska pseudotaktowa	!	!	!	!	!	!	!	!	!
4D/	.	.	.	.	.	.	.	.	.
=30-	=30-	=30-	=30-	=30-	=30-	=30-	=30-	=30-	=30-
1E	no-	0ryy	.	.	.	.	.	2g/	-re-
.	.	.	.	4F/	.	.	.	.	.
.	.	.	.	4G/	.	2c/	.	2g/	-re
*	*	*	*	*	*	*	*	*	*Xij
.	.	.	.	4A/	.	.	.	.	.
!LO:TX:t=P:problem=kreska pseudotaktowa	!	!	!	!	!	!LO:TX:t=P:problem=kreska pseudotaktowa	!	!	!
1D	-bis	.	.	2B-/	.	1d	-bis	4f/	no-
*	*Xij	*	*	*	*	*	*	*	*
.	.	.	.	.	.	.	.	4g/	.
.	.	.	.	2A/	-re	.	.	4a/	.
!	!	!	!	!	!	!	!	!LO:TX:t=P:problem=kreska pseudotaktowa	!
.	.	.	.	.	.	.	.	4f/	.
=31-	=31-	=31-	=31-	=31-	=31-	=31-	=31-	=31-	=31-
!LO:TX:t=P:problem=kreska pseudotaktowa	!	!	!	!	!	!	!	!	!
0r	.	0ryy	.	2G/	no-	2rc	.	4g/	.
.	.	.	.	.	.	.	.	4f/	.
.	.	.	.	2B-/	.	2d/	mi-	4e/	.
.	.	.	.	.	.	.	.	4d/	.
!	!	!	!	!LO:TX:t=P:problem=kreska pseudotaktowa	!	!	!	!	!
.	.	.	.	1A	-bis.	2d/	-ſe-	1e	.
.	.	.	.	.	.	2c/	-re-	.	.
=32-	=32-	=32-	=32-	=32-	=32-	=32-	=32-	=32-	=32-
!	!	!	!	!	!	!	!	!LO:TX:t=P:problem=kreska pseudotaktowa	!
1G	mi-	0ryy	.	2r	.	2.B-/	-re	1d	-bis
.	.	.	.	2d\	mi-	.	.	.	.
*	*	*	*	*	*	*custos:G	*	*	*
!	!	!	!	!	!	!LO:TX:t=P:problem=kreska pseudotaktowa	!	!	!
.	.	.	.	.	.	4A/	.	.	.
*	*	*	*	*	*	*xywh-#139:1363,2809,5972,723	*	*	*
!	!	!	!	!	!	!LO:LB:g=original	!	!	!
2G/	-ſe-	.	.	2e\	-ſe-	4G/	no-	2r	.
.	.	.	.	.	.	4A/	.	.	.
2G/	-re-	.	.	2d\	-re-	4B-/	.	2dd\	mi-
.	.	.	.	.	.	4c/	.	.	.
=33-	=33-	=33-	=33-	=33-	=33-	=33-	=33-	=33-	=33-
!LO:TX:t=P:problem=kreska pseudotaktowa	!	!	!	!LO:TX:t=P:problem=kreska pseudotaktowa	!	!	!	!	!
1B-	-re	0ryy	.	1G	-re	4d/	.	1dd	-se-
.	.	.	.	.	.	4G/	.	.	.
.	.	.	.	.	.	1g	.	.	.
!	!	!	!	!	!	!	!	!LO:TX:t=P:problem=kreska pseudotaktowa	!
1A	no-	.	.	1r	.	.	.	1cc	-re-
!	!	!	!	!	!	!LO:TX:t=P:problem=kreska pseudotaktowa	!	!	!
.	.	.	.	.	.	2f\	.	.	.
!	!	!	!	!	!	!	!	!LO:LB:g=original	!
=34-	=34-	=34-	=34-	=34-	=34-	=34-	=34-	=34-	=34-
!LO:TX:t=P:problem=kreska pseudotaktowa	!	!	!	!	!	!	!	!	!
*	*	*	*	*	*ij	*	*	*lig	*
*	*	*	*	*	*	*	*	*xywh-#55:1286,3151,5959,808	*
1G	-bis	0ryy	.	2r	.	1g	.	1b-	-re
.	.	.	.	2d\	mi-	.	.	.	.
1r	.	.	.	2d\	-ſe-	2f\	.	1a	.
.	.	.	.	2c\	-re-	2e\	.	.	.
*	*	*	*	*	*	*	*	*Xlig	*
=35-	=35-	=35-	=35-	=35-	=35-	=35-	=35-	=35-	=35-
!	!	!	!	!	!	!LO:TX:t=P:problem=kreska pseudotaktowa	!	!	!
1G	mi-	0ryy	.	2B-/	-re	1d	-bis	0b-	no-
*	*	*	*	*	*Xij	*	*	*	*
.	.	.	.	4G/	no-	.	.	.	.
.	.	.	.	4A/	.	.	.	.	.
2G/	-ſe-	.	.	4B-/	.	2rc	.	.	.
.	.	.	.	4c/	.	.	.	.	.
!LO:TX:t=P:problem=kreska pseudotaktowa	!	!	!	!	!	!	!	!	!
2G/	-re-	.	.	4d/	.	2d/	mi-	.	.
.	.	.	.	4e/	.	.	.	.	.
=36-	=36-	=36-	=36-	=36-	=36-	=36-	=36-	=36-	=36-
4F/	-re	0ryy	.	2.f\	.	2d/	-ſe-	1a	.
4G/	.	.	.	.	.	.	.	.	.
4A/	.	.	.	.	.	2c/	-re-	.	.
!LO:TX:t=P:problem=kreska pseudotaktowa	!	!	!	!	!	!	!	!	!
4F/	.	.	.	4e\	.	.	.	.	.
*xywh-#302:7193,3057,6552,902	*	*	*	*	*	*	*	*	*
!LO:LB:g=original	!	!	!	!	!	!	!	!	!
4G/	.	.	.	2d\	.	2B-/	.	2g/	.
4F/	.	.	.	.	.	.	.	.	.
4E/	.	.	.	2.c/	.	2A/	-re	2.a/	.
4D/	.	.	.	.	.	.	.	.	.
=37-	=37-	=37-	=37-	=37-	=37-	=37-	=37-	=37-	=37-
*	*	*	*	*	*	*lig	*	*	*
1E	no-	0ryy	.	.	.	1c	no-	.	.
.	.	.	.	4B-/	.	.	.	4g/	.
.	.	.	.	4A/	.	.	.	1g	.
.	.	.	.	4G/	.	.	.	.	.
1D	-bis.	.	.	1A	-bis.	1d	.	.	.
.	.	.	.	.	.	.	.	2f#X/	.
*	*	*	*	*	*	*Xlig	*	*	*
=38-	=38-	=38-	=38-	=38-	=38-	=38-	=38-	=38-	=38-
0Gl;	.	0ryy	.	0Gl;<	.	0ld;	-bis.	0gl;	-bis.
!	!	!	!	!LO:LB:g=original	!	!	!	!	!
=39||	=39||	=39||	=39||	=39||	=39||	=39||	=39||	=39||	=39||
*M2/1	*	*M2/1	*	*M2/1	*	*M2/1	*	*M2/1	*
*	*	*met(C|)	*	*met(C|)	*	*met(C|)	*	*met(C|)	*
!LO:TX:a:t=Agnus 2dum\nTacet.	!	!	!	!LO:TX:a:t=Agn(us) 2dum\nTacet.	!	!LO:TX:a:t=a 2.	!	!LO:TX:a:t=à 2.	!
0ryy	.	0ryy	.	0ryy	.	00r	.	0g	A-
=40-	=40-	=40-	=40-	=40-	=40-	=40-	=40-	=40-	=40-
!	!	!	!	!	!	!	!	!LO:TX:t=P:problem=kreska pseudotaktowa	!
0ryy	.	0ryy	.	0ryy	.	.	.	1b-	.
.	.	.	.	.	.	.	.	1cc	-gnus
=41-	=41-	=41-	=41-	=41-	=41-	=41-	=41-	=41-	=41-
0ryy	.	0ryy	.	0ryy	.	0d	A-	2.dd\	De-
.	.	.	.	.	.	.	.	4cc\	.
.	.	.	.	.	.	.	.	4dd\	.
.	.	.	.	.	.	.	.	4ee\	.
.	.	.	.	.	.	.	.	1ff\	.
=42-	=42-	=42-	=42-	=42-	=42-	=42-	=42-	=42-	=42-
0ryy	.	0ryy	.	0ryy	.	1f	-gn(us)	.	.
.	.	.	.	.	.	.	.	4ee\	.
!	!	!	!	!	!	!	!	!LO:TX:t=P:problem=kreska pseudotaktowa	!
.	.	.	.	.	.	.	.	4dd\	.
.	.	.	.	.	.	2.g\	De-	2ee\	.
.	.	.	.	.	.	.	.	2.dd\	.
.	.	.	.	.	.	4f\	.	.	.
=43-	=43-	=43-	=43-	=43-	=43-	=43-	=43-	=43-	=43-
0ryy	.	0ryy	.	0ryy	.	4g\	.	.	.
.	.	.	.	.	.	4a\	.	4cc\	.
.	.	.	.	.	.	1b-	.	4b-/	.
.	.	.	.	.	.	.	.	4a/	.
.	.	.	.	.	.	.	.	2g/	.
.	.	.	.	.	.	4a\	.	2dd\	.
!	!	!	!	!	!	!LO:TX:t=P:problem=kreska pseudotaktowa	!	!	!
.	.	.	.	.	.	4g\	.	.	.
=44-	=44-	=44-	=44-	=44-	=44-	=44-	=44-	=44-	=44-
0ryy	.	0ryy	.	0ryy	.	2a\	.	4cc\	.
.	.	.	.	.	.	.	.	4dd\	.
.	.	.	.	.	.	2.g\	.	4ee\	.
!	!	!	!	!	!	!	!	!LO:TX:t=P:problem=kreska pseudotaktowa	!
.	.	.	.	.	.	.	.	4ff\	.
.	.	.	.	.	.	.	.	2ee\	.
.	.	.	.	.	.	4f\	.	.	.
.	.	.	.	.	.	4e/	.	1dd\	.
.	.	.	.	.	.	4d/	.	.	.
=45-	=45-	=45-	=45-	=45-	=45-	=45-	=45-	=45-	=45-
0ryy	.	0ryy	.	0ryy	.	1e	.	.	.
.	.	.	.	.	.	.	.	2cc\	.
!	!	!	!	!	!	!LO:TX:t=P:problem=kreska pseudotaktowa	!	!LO:TX:t=P:problem=kreska pseudotaktowa	!
.	.	.	.	.	.	1d	-i	0.dd	-i
=46-	=46-	=46-	=46-	=46-	=46-	=46-	=46-	=46-	=46-
0ryy	.	0ryy	.	0ryy	.	2r	.	.	.
.	.	.	.	.	.	2g\	qui	.	.
.	.	.	.	.	.	2g\	tol-	.	.
.	.	.	.	.	.	2f\	.	.	.
=47-	=47-	=47-	=47-	=47-	=47-	=47-	=47-	=47-	=47-
0ryy	.	0ryy	.	0ryy	.	2g\	-lis	2r	.
.	.	.	.	.	.	1b-	pec-	2dd\	Qui
.	.	.	.	.	.	.	.	2dd\	tol-
!	!	!	!	!	!	!LO:TX:t=P:problem=kreska pseudotaktowa	!	!	!
.	.	.	.	.	.	2a\	-ca-	2cc\	.
=48-	=48-	=48-	=48-	=48-	=48-	=48-	=48-	=48-	=48-
0ryy	.	0ryy	.	0ryy	.	2g\	-ta	2dd\	-lis
!	!	!	!	!	!	!	!	!LO:TX:t=P:problem=kreska pseudotaktowa	!
.	.	.	.	.	.	2f\	.	2ff\	pec-
.	.	.	.	.	.	2.g\	mun-	2ee\	.
.	.	.	.	.	.	.	.	1dd\	-ca-
!	!	!	!	!	!	!LO:TX:t=P:problem=kreska pseudotaktowa	!	!	!
.	.	.	.	.	.	4f\	.	.	.
!	!	!	!	!	!	!LO:LB:g=original	!	!	!
=49-	=49-	=49-	=49-	=49-	=49-	=49-	=49-	=49-	=49-
*	*	*	*	*	*	*xywh-#139:1383,3236,6027,813	*	*	*
0ryy	.	0ryy	.	0ryy	.	4d/	.	.	.
.	.	.	.	.	.	4e/	.	.	.
.	.	.	.	.	.	4f/	.	4cc\	.
!	!	!	!	!	!	!	!	!LO:TX:t=P:problem=kreska pseudotaktowa	!
.	.	.	.	.	.	4g/	.	4b-\	.
*	*	*	*	*	*	*	*	*xywh-#55:1352,3651,5893,783	*
!	!	!	!	!	!	!	!	!LO:LB:g=original	!
.	.	.	.	.	.	2a\	.	2cc\	-ta
.	.	.	.	.	.	2.b-\	.	2dd\	mun-
=50-	=50-	=50-	=50-	=50-	=50-	=50-	=50-	=50-	=50-
0ryy	.	0ryy	.	0ryy	.	.	.	4g/	.
.	.	.	.	.	.	4a\	.	4a/	.
.	.	.	.	.	.	1g	.	4b-/	.
.	.	.	.	.	.	.	.	4cc/	.
.	.	.	.	.	.	.	.	4dd\	.
.	.	.	.	.	.	.	.	4ee\	.
!	!	!	!	!	!	!LO:TX:t=P:problem=kreska pseudotaktowa	!	!	!
.	.	.	.	.	.	2f\	.	4ff\	.
.	.	.	.	.	.	.	.	4dd\	.
=51-	=51-	=51-	=51-	=51-	=51-	=51-	=51-	=51-	=51-
0ryy	.	0ryy	.	0ryy	.	2g\	-di	2ee\	.
.	.	.	.	.	.	4G/	pec-	1dd	.
.	.	.	.	.	.	4A/	.	.	.
.	.	.	.	.	.	4B-/	.	.	.
.	.	.	.	.	.	4c/	.	.	.
.	.	.	.	.	.	4d/	-ca-	4cc\	.
!	!	!	!	!	!	!	!	!LO:TX:t=P:problem=kreska pseudotaktowa	!
.	.	.	.	.	.	4e/	.	4b-\	.
=52-	=52-	=52-	=52-	=52-	=52-	=52-	=52-	=52-	=52-
0ryy	.	0ryy	.	0ryy	.	4f\	.	4a/	.
.	.	.	.	.	.	4g\	.	4b-/	.
.	.	.	.	.	.	4a\	.	4cc/	.
!	!	!	!	!	!	!LO:TX:t=P:problem=kreska pseudotaktowa	!	!	!
.	.	.	.	.	.	4f\	.	4dd/	.
.	.	.	.	.	.	2g\	.	2ee\	.
.	.	.	.	.	.	2a\	.	1ff\	.
=53-	=53-	=53-	=53-	=53-	=53-	=53-	=53-	=53-	=53-
0ryy	.	0ryy	.	0ryy	.	2d/	-ta	.	.
.	.	.	.	.	.	2.g\	mun-	4ee\	.
.	.	.	.	.	.	.	.	4dd\	.
.	.	.	.	.	.	.	.	2ee\	.
.	.	.	.	.	.	4f\	.	.	.
.	.	.	.	.	.	4e/	.	1dd\	.
.	.	.	.	.	.	4d/	.	.	.
=54-	=54-	=54-	=54-	=54-	=54-	=54-	=54-	=54-	=54-
0ryy	.	0ryy	.	0ryy	.	1e	.	.	.
.	.	.	.	.	.	.	.	2cc\	-di
!	!	!	!	!	!	!LO:TX:t=P:problem=kreska pseudotaktowa	!	!LO:TX:t=P:problem=kreska pseudotaktowa	!
.	.	.	.	.	.	1d	-di.	00dd	.
=55-	=55-	=55-	=55-	=55-	=55-	=55-	=55-	=55-	=55-
0ryy	.	0ryy	.	0ryy	.	2r	.	.	.
.	.	.	.	.	.	2g\	mi-	.	.
.	.	.	.	.	.	2.b-\	-ſe-	.	.
.	.	.	.	.	.	4a\	.	.	.
=56-	=56-	=56-	=56-	=56-	=56-	=56-	=56-	=56-	=56-
0ryy	.	0ryy	.	0ryy	.	2g\	-re-	.	.
!	!	!	!	!	!	!LO:TX:t=P:problem=kreska pseudotaktowa	!	!	!
.	.	.	.	.	.	2f\	-re	.	.
.	.	.	.	.	.	2g\	no-	2rdd	.
.	.	.	.	.	.	4f\	.	2dd\	mi-
.	.	.	.	.	.	4e\	.	.	.
=57-	=57-	=57-	=57-	=57-	=57-	=57-	=57-	=57-	=57-
0ryy	.	0ryy	.	0ryy	.	4d/	.	2.ff\	-ſe-
.	.	.	.	.	.	4c/	.	.	.
.	.	.	.	.	.	4d/	.	.	.
.	.	.	.	.	.	4e/	.	4ee\	.
.	.	.	.	.	.	4f\	.	2dd\	-re-
.	.	.	.	.	.	4g\	.	.	.
.	.	.	.	.	.	1a\	.	2cc\	.
=58-	=58-	=58-	=58-	=58-	=58-	=58-	=58-	=58-	=58-
0ryy	.	0ryy	.	0ryy	.	.	.	2dd\	-re
!	!	!	!	!	!	!LO:TX:t=P:problem=kreska pseudotaktowa	!	!	!
.	.	.	.	.	.	2g\	.	4cc\	no-
!	!	!	!	!	!	!	!	!LO:TX:t=P:problem=kreska pseudotaktowa	!
.	.	.	.	.	.	.	.	4b-\	.
.	.	.	.	.	.	2f\	.	4a/	.
.	.	.	.	.	.	.	.	4g/	.
.	.	.	.	.	.	4e/	.	4a/	.
.	.	.	.	.	.	4d/	.	4b-/	.
=59-	=59-	=59-	=59-	=59-	=59-	=59-	=59-	=59-	=59-
0ryy	.	0ryy	.	0ryy	.	2c/	.	4cc/	.
.	.	.	.	.	.	.	.	4a/	.
.	.	.	.	.	.	1d	.	1b-	.
.	.	.	.	.	.	2c/	.	1a/	.
=60-	=60-	=60-	=60-	=60-	=60-	=60-	=60-	=60-	=60-
0ryy	.	0ryy	.	0ryy	.	1B-	.	.	.
.	.	.	.	.	.	.	.	2g/	.
!	!	!	!	!	!	!LO:TX:t=P:problem=kreska pseudotaktowa	!	!LO:TX:t=P:problem=kreska pseudotaktowa	!
.	.	.	.	.	.	1A	-bis.	0a	-bis
=61-	=61-	=61-	=61-	=61-	=61-	=61-	=61-	=61-	=61-
0ryy	.	0ryy	.	0ryy	.	2r	.	.	.
.	.	.	.	.	.	2d/	mi-	.	.
.	.	.	.	.	.	2.f\	-ſe-	2r	.
.	.	.	.	.	.	.	.	2dd\	mi-
.	.	.	.	.	.	4g\	.	.	.
=62-	=62-	=62-	=62-	=62-	=62-	=62-	=62-	=62-	=62-
0ryy	.	0ryy	.	0ryy	.	2a\	-re-	1ff	-ſe-
!	!	!	!	!	!	!LO:TX:t=P:problem=kreska pseudotaktowa	!	!	!
.	.	.	.	.	.	2b-\	-re	.	.
*	*	*	*	*	*	*xywh-#139:1480,3688,5881,834	*	*	*
!	!	!	!	!	!	!LO:LB:g=original	!	!	!
.	.	.	.	.	.	2g\	no-	1ee	-re-
.	.	.	.	.	.	2.a\	.	.	.
=63-	=63-	=63-	=63-	=63-	=63-	=63-	=63-	=63-	=63-
0ryy	.	0ryy	.	0ryy	.	.	.	2cc\	-re
.	.	.	.	.	.	4g\	.	.	.
.	.	.	.	.	.	4f\	.	2.ff\	.
.	.	.	.	.	.	4e\	.	.	.
.	.	.	.	.	.	2f\	.	.	.
.	.	.	.	.	.	.	.	4ee\	.
.	.	.	.	.	.	2.g\	.	4dd\	.
!	!	!	!	!	!	!	!	!LO:TX:t=P:problem=kreska pseudotaktowa	!
.	.	.	.	.	.	.	.	4cc\	.
=64-	=64-	=64-	=64-	=64-	=64-	=64-	=64-	=64-	=64-
*	*	*	*	*	*	*	*	*xywh-#55:1311,4151,5951,925	*
0ryy	.	0ryy	.	0ryy	.	.	.	2b-\	.
.	.	.	.	.	.	4f\	.	.	.
.	.	.	.	.	.	4e\	.	2.cc\	no-
.	.	.	.	.	.	4d\	.	.	.
.	.	.	.	.	.	2c/	.	.	.
.	.	.	.	.	.	.	.	4b-/	.
.	.	.	.	.	.	1d/	.	4a/	.
.	.	.	.	.	.	.	.	4g/	.
=65-	=65-	=65-	=65-	=65-	=65-	=65-	=65-	=65-	=65-
0ryy	.	0ryy	.	0ryy	.	.	.	2f#X/	.
.	.	.	.	.	.	2B-/	.	1g	.
.	.	.	.	.	.	1A	.	.	.
.	.	.	.	.	.	.	.	2f#/	.
=66-	=66-	=66-	=66-	=66-	=66-	=66-	=66-	=66-	=66-
0ryy	.	0ryy	.	0ryy	.	0Bnl;	-bis.	0gl;	-bis.
*	*	*	*	*xywh-#216:753,1567,6454,820	*	*	*	*	*
=67||	=67||	=67||	=67||	=67||	=67||	=67||	=67||	=67||	=67||
*M2/1	*	*M2/1	*	*M2/1	*	*M2/1	*	*M2/1	*
*met(C|)	*	*met(C|)	*	*met(C|)	*	*met(C|)	*	*met(C|)	*
!	!	!	!	!LO:TX:a:t=1mo.\nà5 Vocib(us).	!	!LO:TX:t=P:problem=przy kluczu b- B-	!	!	!
*	*	*xywh-#216:762,3030,6455,870	*	*	*	*	*	*	*
!LO:TX:t=P:problem=kreska pseudotaktowa	!	!	!	!LO:TX:t=P:problem=kreska pseudotaktowa	!	!	!	!	!
00r	.	0G	A-	00r	.	0g	A-	0g	A-
=68-	=68-	=68-	=68-	=68-	=68-	=68-	=68-	=68-	=68-
!	!	!LO:TX:t=P:problem=kreska pseudotaktowa	!	!	!	!LO:TX:t=P:problem=kreska pseudotaktowa	!	!	!
.	.	1G	-gnus	.	.	1g	-gnus	1b-	-gn(us)
.	.	1A	De-	.	.	1e	De-	1cc	De-
=69-	=69-	=69-	=69-	=69-	=69-	=69-	=69-	=69-	=69-
*	*	*	*	*	*	*lig	*	*	*
!	!	!	!	!	!	!	!	!LO:TX:t=P:problem=kreska pseudotaktowa	!
0G	A-	1.B-	.	0G	A-	0d	-i,	1dd	-i
.	.	.	.	.	.	.	.	2r	.
*	*	*	*	*	*	*	*	*	*ij
.	.	4A/	.	.	.	.	.	2dd\	A-
.	.	4G/	.	.	.	.	.	.	.
=70-	=70-	=70-	=70-	=70-	=70-	=70-	=70-	=70-	=70-
*	*	*	*	*	*	*	*	*lig	*
1F	-gn(us)	1d	.	1B-	-gnus	0g	.	1dd	-gn(us)
!	!	!LO:TX:t=P:problem=kreska pseudotaktowa	!	!	!	!	!	!	!
1E	De-	1G	-i	1c	De-	.	.	1ee	.
*	*	*	*	*	*	*Xlig	*	*	*
=71-	=71-	=71-	=71-	=71-	=71-	=71-	=71-	=71-	=71-
!LO:TX:t=P:problem=kreska pseudotaktowa	!	!	!	!LO:TX:t=P:problem=kreska pseudotaktowa	!	!	!	!	!
0D	-i	1A	A-	0d	-i	2.f\	A-	0ff	De-
.	.	.	.	.	.	4g\	.	.	.
.	.	1.d	.	.	.	2a\	.	.	.
.	.	.	.	.	.	1b-\	.	.	.
=72-	=72-	=72-	=72-	=72-	=72-	=72-	=72-	=72-	=72-
*lig	*	*	*	*	*	*	*	*	*
!	!	!	!	!	!	!	!	!LO:TX:t=P:problem=kreska pseudotaktowa	!
1F	A-	.	.	2r	.	.	.	00dd	-i
*	*	*	*	*	*	*	*	*	*Xij
!	!	!LO:N:vis=4	!	!	!	!	!	!	!
.	.	8c/	.	2d\	A-	1a	.	.	.
!	!	!LO:N:vis=4	!	!	!	!	!	!	!
.	.	8B-/	.	.	.	.	.	.	.
!	!	!LO:TX:t=P:problem=kreska pseudotaktowa	!	!	!	!	!	!	!
.	.	4A/	.	.	.	.	.	.	.
1G	.	1B-	.	2d\	-gnus	.	.	.	.
!	!	!	!	!	!	!LO:TX:t=P:problem=kreska pseudotaktowa	!	!	!
.	.	.	.	2d\	De-	2g\	-gn(us)	.	.
*Xlig	*	*	*	*	*	*	*	*	*
=73-	=73-	=73-	=73-	=73-	=73-	=73-	=73-	=73-	=73-
1D	-gnus	1.A	-gnus	2.f\	.	1.a	De-	.	.
.	.	.	.	4e\	.	.	.	.	.
2.D/	De-	.	.	4d\	.	.	.	.	.
.	.	.	.	4c\	.	.	.	.	.
*	*	*2\right	*	*	*	*	*	*	*
.	.	2.f\	De-	2.d\	.	2b-\	.	.	.
4E/	.	.	.	.	.	.	.	.	.
=74-	=74-	=74-	=74-	=74-	=74-	=74-	=74-	=74-	=74-
2F/	.	.	.	.	.	2a\	.	1rff	.
.	.	4e\	.	4c/	.	.	.	.	.
2G/	.	4d\	.	2B-/	.	1g	.	.	.
.	.	4c/	.	.	.	.	.	.	.
!	!	!	!	!LO:TX:t=P:problem=kreska pseudotaktowa	!	!	!	!	!
1D	.	1d	.	1A	-i	.	.	0dd	A-
.	.	.	.	.	.	2f\	.	.	.
=75-	=75-	=75-	=75-	=75-	=75-	=75-	=75-	=75-	=75-
!LO:TX:t=P:problem=kreska pseudotaktowa	!	!LO:TX:t=P:problem=kreska pseudotaktowa	!	!	!	!LO:TX:t=P:problem=kreska pseudotaktowa	!	!	!
0.G	-i	1B-	-i	2rA	.	0.g	-i	.	.
.	.	.	.	2G/	Qui	.	.	.	.
.	.	2rA	.	4G/	tol-	.	.	1dd	-gn(us)
.	.	.	.	4A/	.	.	.	.	.
.	.	2G/	qui	4B-/	.	.	.	.	.
.	.	.	.	4c/	.	.	.	.	.
=76-	=76-	=76-	=76-	=76-	=76-	=76-	=76-	=76-	=76-
.	.	4G/	tol-	4d\	.	.	.	1b-	.
.	.	4A/	.	4c\	.	.	.	.	.
.	.	4B-/	.	4d\	.	.	.	.	.
!	!	!	!	!LO:TX:t=P:problem=kreska pseudotaktowa	!	!	!	!	!
.	.	4c/	.	4e\	.	.	.	.	.
!LO:TX:t=P:problem=kreska pseudotaktowa	!	!	!	!	!	!	!	!LO:TX:t=P:problem=kreska pseudotaktowa	!
00r	.	4d\	.	2.f\	.	2r	.	1a	De-
.	.	4c\	.	.	.	.	.	.	.
.	.	4d\	.	.	.	2d/	Qui	.	.
.	.	4e\	.	4e\	.	.	.	.	.
=77-	=77-	=77-	=77-	=77-	=77-	=77-	=77-	=77-	=77-
.	.	1f	.	4d\	.	4d/	tol-	2.a/	.
.	.	.	.	4c\	.	4e/	.	.	.
.	.	.	.	2d\	.	4f/	.	.	.
.	.	.	.	.	.	4g/	.	4b-/	.
.	.	2e\	.	2c/	.	2a\	.	2cc\	.
!	!	!LO:TX:t=P:problem=kreska pseudotaktowa	!	!	!	!	!	!	!
.	.	2d\	.	2B-/	.	2g\	.	1dd\	.
=78-	=78-	=78-	=78-	=78-	=78-	=78-	=78-	=78-	=78-
!	!	!	!	!LO:TX:t=P:problem=kreska pseudotaktowa	!	!LO:TX:t=P:problem=kreska pseudotaktowa	!	!	!
.	.	1e	.	1A	-lis	1a	.	.	.
.	.	.	.	.	.	.	.	2cc\	.
!	!	!	!	!	!	!	!	!LO:TX:t=P:problem=kreska pseudotaktowa	!
1D	Qui	1d	.	2r	.	2.f\	.	0dd	-i
.	.	.	.	2d\	pec-	.	.	.	.
*	*	*	*	*	*	*custos:d	*	*	*
!	!	!	!	!	!	!LO:TX:t=P:problem=kreska pseudotaktowa	!	!	!
.	.	.	.	.	.	4e/	.	.	.
!	!	!	!	!	!	!LO:LB:g=original	!	!	!
=79-	=79-	=79-	=79-	=79-	=79-	=79-	=79-	=79-	=79-
*	*	*	*	*	*	*xywh-#139:1459,4216,5888,876	*	*	*
4D/	tol-	2.A/	.	1f	-ca-	2d/	.	.	.
4E/	.	.	.	.	.	.	.	.	.
4F/	.	.	.	.	.	1a	.	.	.
!LO:TX:t=P:problem=kreska pseudotaktowa	!	!	!	!	!	!	!	!	!
4G/	.	4B-/	.	.	.	.	.	.	.
!	!	!	!	!	!	!	!	!LO:TX:t=P:problem=kreska pseudotaktowa	!
2A\	.	2c\	.	2e\	.	.	.	0r	.
2B-\	.	1d\	.	2d\	-ta	2g\	.	.	.
=80-	=80-	=80-	=80-	=80-	=80-	=80-	=80-	=80-	=80-
!	!	!	!	!	!	!LO:TX:t=P:problem=kreska pseudotaktowa	!	!	!
1A	-lis	.	.	1e	.	1a	-lis	.	.
.	.	2c\	.	.	.	.	.	.	.
!LO:TX:a:t=à5 Voci.\n2b(us) Tenorib(us).	!	!	!	!	!	!	!	!	!
!LO:TX:t=P:problem=kreska pseudotaktowa	!	!	!	!	!	!	!	!	!
*	*	*lig	*	*	*	*	*	*	*
1D	.	1d	-lis	2d\	.	1r	.	2r	.
.	.	.	.	1f\	.	.	.	2a/	qui
!LO:LB:g=original	!	!	!	!	!	!	!	!	!
=81-	=81-	=81-	=81-	=81-	=81-	=81-	=81-	=81-	=81-
*xywh-#302:7150,3539,5923,875	*	*	*	*	*	*	*	*	*
!LO:TX:t=P:problem=kreska pseudotaktowa	!	!LO:TX:t=P:problem=kreska pseudotaktowa	!	!	!	!	!	!	!
0rA	.	1A	.	.	.	2r	.	4a/	tol-
.	.	.	.	.	.	.	.	4b-/	.
.	.	.	.	4e\	.	2a\	pec-	4cc/	.
.	.	.	.	4d\	.	.	.	4dd/	.
*	*	*Xlig	*	*	*	*	*	*	*
!	!	!LO:TX:t=P:problem=kreska pseudotaktowa	!	!	!	!	!	!	!
.	.	1r	.	2c\	mun-	2cc\	-ca-	2ee\	.
.	.	.	.	2d\	.	2b-\	.	2.dd\	.
!	!	!LO:LB:g=original	!	!	!	!	!	!	!
=82-	=82-	=82-	=82-	=82-	=82-	=82-	=82-	=82-	=82-
*	*	*xywh-#216:1294,3507,5912,761	*	*	*	*	*	*	*
!	!	!	!	!LO:TX:t=P:problem=kreska pseudotaktowa	!	!	!	!	!
1D	qui	2r	.	0A	-di	1a	-ta	.	.
.	.	.	.	.	.	.	.	4ee\	.
!	!	!	!	!	!	!	!	!LO:TX:t=P:problem=kreska pseudotaktowa	!
.	.	2d\	pec-	.	.	.	.	[<2ff\	.
*	*	*	*	*	*	*	*	*xywh-#55:7131,674,5851,691	*
!	!	!	!	!	!	!	!	!LO:PB:g=original	!
4D/	tol-	1f	-ca-	.	.	1.a	mun-	2ff]	.
4E/	.	.	.	.	.	.	.	.	.
4F/	.	.	.	.	.	.	.	4ee\	.
!LO:TX:t=P:problem=kreska pseudotaktowa	!	!	!	!	!	!	!	!	!
4G/	.	.	.	.	.	.	.	4dd\	.
!	!	!	!	!LO:LB:g=original	!	!	!	!	!
=83-	=83-	=83-	=83-	=83-	=83-	=83-	=83-	=83-	=83-
*	*	*	*	*xywh-#216:1216,2101,6080,830	*	*	*	*	*
2A\	.	2e\	-ta	2rA	.	.	.	2cc\	.
2B-\	.	2d\	mun-	2G/	pec-	2g\	.	1dd	.
!	!	!LO:TX:t=P:problem=kreska pseudotaktowa	!	!	!	!	!	!	!
1A	.	1e	-di	2c\	-ca-	1a	.	.	.
.	.	.	.	2A/	-ta	.	.	2cc\	.
=84-	=84-	=84-	=84-	=84-	=84-	=84-	=84-	=84-	=84-
!LO:TX:t=P:problem=kreska pseudotaktowa	!	!	!	!	!	!	!	!	!
*	*	*	*	*lig	*	*	*	*	*
!	!	!	!	!	!	!LO:TX:t=P:problem=kreska pseudotaktowa	!	!LO:TX:t=P:problem=kreska pseudotaktowa	!
0D	-lis	2r	.	1B-	mun-	1f	-di	0dd	-lis
.	.	1d	pec-	.	.	.	.	.	.
.	.	.	.	1A	.	2rg	.	.	.
.	.	2f\	-ca-	.	.	2a\	pec-	.	.
*	*	*	*	*Xlig	*	*	*	*	*
=85-	=85-	=85-	=85-	=85-	=85-	=85-	=85-	=85-	=85-
!	!	!	!	!LO:TX:t=P:problem=kreska pseudotaktowa	!	!	!	!	!
2rF	.	2e\	.	1G	-di	2.b-\	-ca-	0r	.
!LO:TX:t=P:problem=kreska pseudotaktowa	!	!	!	!	!	!	!	!	!
2G/	pec-	2.d\	-ta	.	.	.	.	.	.
.	.	.	.	.	.	8a\L	.	.	.
.	.	.	.	.	.	8g\J	.	.	.
1B-	-ca-	.	.	00r	.	2f\	.	.	.
.	.	4c/	.	.	.	.	.	.	.
!	!	!	!	!	!	!LO:TX:t=P:problem=kreska pseudotaktowa	!	!	!
.	.	4d/	.	.	.	2g\	.	.	.
!	!	!LO:TX:t=P:problem=kreska pseudotaktowa	!	!	!	!	!	!	!
.	.	4e/	.	.	.	.	.	.	.
=86-	=86-	=86-	=86-	=86-	=86-	=86-	=86-	=86-	=86-
!	!	!	!	!	!	!	!	!LO:TX:t=P:problem=kreska pseudotaktowa	!
2A\	.	2f\	pec-	.	.	2c/	.	1r	.
2G/	-ta	1g	.	.	.	1d	.	.	.
1A	pec-	.	.	.	.	.	.	1a	pec-
!	!	!LO:TX:t=P:problem=kreska pseudotaktowa	!	!	!	!	!	!	!
.	.	2f\	-ca-	.	.	2c/	.	.	.
=87-	=87-	=87-	=87-	=87-	=87-	=87-	=87-	=87-	=87-
!LO:TX:t=P:problem=kreska pseudotaktowa	!	!	!	!	!	!	!	!	!
1G	-ca-	2g\	.	.	.	2.d/	-ta	1b-	-ca-
.	.	1d	.	.	.	.	.	.	.
.	.	.	.	.	.	4e/	.	.	.
!	!	!	!	!LO:TX:t=P:problem=kreska pseudotaktowa	!	!	!	!	!
2F/	.	.	.	1rc	.	2f\	mun-	2a/	-ta
2E/	.	2G/	-ta	.	.	1g\	.	2g/	.
=88-	=88-	=88-	=88-	=88-	=88-	=88-	=88-	=88-	=88-
*	*	*	*ij	*	*	*	*	*	*
1D	.	0d	pec-	1A	pec-	.	.	1a	.
.	.	.	.	.	.	2f\	.	.	.
!LO:TX:t=P:problem=kreska pseudotaktowa	!	!	!	!	!	!LO:TX:t=P:problem=kreska pseudotaktowa	!	!	!
1G	.	.	.	1B-	-ca-	1g	-di	2g/	.
.	.	.	.	.	.	.	.	2d/	.
=89-	=89-	=89-	=89-	=89-	=89-	=89-	=89-	=89-	=89-
2C/	.	1c	-ca-	2A/	-ta	1r	.	2e/	mun-
2E/	.	.	.	2G/	.	.	.	1g	.
!	!	!LO:TX:t=P:problem=kreska pseudotaktowa	!	!	!	!	!	!	!
1D	.	1d	-ta	1A	mun-	2r	.	.	.
.	.	.	.	.	.	2d/	Do-	2fny/	.
=90-	=90-	=90-	=90-	=90-	=90-	=90-	=90-	=90-	=90-
*lig	*	*	*Xij	*	*	*	*	*	*
!	!	!	!	!LO:TX:t=P:problem=kreska pseudotaktowa	!	!	!	!LO:TX:t=P:problem=kreska pseudotaktowa	!
1G	-ta	1B-	mun-	0G	-di	2d/	-na	0g	-di
.	.	.	.	.	.	2d/	no-	.	.
1C	.	2.c/	.	.	.	1e	-bis	.	.
.	.	4B-/	.	.	.	.	.	.	.
*Xlig	*	*	*	*	*	*	*	*	*
=91-	=91-	=91-	=91-	=91-	=91-	=91-	=91-	=91-	=91-
!LO:TX:t=P:problem=kreska pseudotaktowa	!	!	!	!	!	!	!	!	!
!LO:TX:a:t=4	!	!	!	!	!	!	!	!	!
00D	mun-	4A/	.	0r	.	2.d/	pa-	2rg	.
.	.	4G/	.	.	.	.	.	.	.
.	.	2A/	.	.	.	.	.	2a/	do-
!	!	!	!	!	!	!LO:TX:t=P:problem=kreska pseudotaktowa	!	!	!
.	.	.	.	.	.	4e/	.	.	.
.	.	1.F	-di	.	.	4f\	.	2a/	-na
.	.	.	.	.	.	4g\	.	.	.
.	.	.	.	.	.	1a\	.	2a/	no-
=92-	=92-	=92-	=92-	=92-	=92-	=92-	=92-	=92-	=92-
.	.	.	.	1r	.	.	.	1b-	.
!	!	!LO:TX:t=P:problem=kreska pseudotaktowa	!	!	!	!	!	!	!
.	.	2G/	pec-	.	.	1g	.	.	.
.	.	1A	.	1d	Do-	.	.	1a	-bis
!	!	!	!	!	!	!LO:TX:t=P:problem=♯ above	!	!	!
.	.	.	.	.	.	2f#X\	-cem	.	.
=93-	=93-	=93-	=93-	=93-	=93-	=93-	=93-	=93-	=93-
*	*	*	*	*	*	*custos:c	*	*	*
!LO:TX:t=P:problem=kreska pseudotaktowa	!	!	!	!	!	!LO:TX:t=P:problem=kreska pseudotaktowa	!	!	!
1G,<	-di	1B-	-ca-	2d\	-na	1g	.	2g/	pa-
.	.	.	.	2d\	no-	.	.	1b-	.
*	*	*	*	*	*	*xywh-#139:7270,645,6557,792	*	*	*
!LO:TX:t=P:problem=kreska pseudotaktowa	!	!	!	!	!	!LO:PB:g=original	!	!	!
1rA	.	2G/	-ta	1e	.	2rc	.	.	.
.	.	2A/	.	.	.	2c/	do-	2cc\	.
=94-	=94-	=94-	=94-	=94-	=94-	=94-	=94-	=94-	=94-
!	!	!	!	!	!	!	!	!LO:TX:t=P:problem=kreska pseudotaktowa	!
1D	Do-	2B-/	.	2.d\	-bis	2.fny\	-na	0dd	-cem
.	.	1A	mun-	.	.	.	.	.	.
.	.	.	.	8c/L	.	4g\	.	.	.
.	.	.	.	8B-/J	.	.	.	.	.
2D/	-na	.	.	2A/	pa-	2a\	no-	.	.
2D/	no-	1d\	.	1B-/	.	2f\	.	.	.
=95-	=95-	=95-	=95-	=95-	=95-	=95-	=95-	=95-	=95-
!LO:TX:t=P:problem=kreska pseudotaktowa	!	!	!	!	!	!LO:TX:t=P:problem=kreska pseudotaktowa	!	!	!
1E	-bis	.	.	.	.	1g	-bis	00r	.
.	.	2c\	.	4A/	.	.	.	.	.
.	.	.	.	4G/	.	.	.	.	.
*	*	*custos:d	*	*	*	*	*	*	*
!	!	!LO:TX:t=P:problem=kreska pseudotaktowa	!	!	!	!	!	!	!
2.D/	pa-	1d	-di	2A/	.	2.f\	pa-	.	.
.	.	.	.	2.d\	.	.	.	.	.
4E/	.	.	.	.	.	4g\	.	.	.
!	!	!LO:LB:g=original	!	!	!	!	!	!	!
=96-	=96-	=96-	=96-	=96-	=96-	=96-	=96-	=96-	=96-
*	*	*xywh-#216:1298,4088,5931,958	*	*	*	*	*	*	*
2F/	.	2r	.	.	.	2a\	.	.	.
.	.	.	.	4c/	.	.	.	.	.
!LO:TX:t=P:problem=kreska pseudotaktowa	!	!	!	!	!	!	!	!	!
2G/	.	2d\	do-	2B-/	.	2b-\	.	.	.
2D/	.	2d\	-na	2A/	.	2f\	.	.	.
1G/	.	2d\	no-	2G/	.	2.b-\	.	.	.
=97-	=97-	=97-	=97-	=97-	=97-	=97-	=97-	=97-	=97-
!	!	!	!	!	!	!	!	!LO:TX:t=P:problem=kreska pseudotaktowa	!
.	.	1e	.	2B-/	.	.	.	0r	.
.	.	.	.	.	.	4a\	.	.	.
2C/	.	.	.	2c\	.	1g	.	.	.
!LO:TX:t=P:problem=kreska pseudotaktowa	!	!LO:TX:t=P:problem=kreska pseudotaktowa	!	!	!	!	!	!	!
1D	.	1d	-bis	1A	-cem	.	.	.	.
.	.	.	.	.	.	2f\	.	.	.
=98-	=98-	=98-	=98-	=98-	=98-	=98-	=98-	=98-	=98-
1.G	.	1.B-	pa-	2.G/	pa-	1g	-cem	2r	.
.	.	.	.	.	.	.	.	2dd\	Do-
.	.	.	.	4A/	.	.	.	.	.
!	!	!	!	!	!	!LO:TX:t=P:problem=kreska pseudotaktowa	!	!	!
.	.	.	.	4B-/	.	1d	.	2dd\	-na
.	.	.	.	4c/	.	.	.	.	.
*custos:E	*	*	*	*	*	*	*	*	*
!LO:TX:t=P:problem=kreska pseudotaktowa	!	!	!	!	!	!	!	!	!
2F/	.	2A/	.	2d\	.	.	.	2dd\	no-
!LO:LB:g=original	!	!	!	!	!	!	!	!	!
=99-	=99-	=99-	=99-	=99-	=99-	=99-	=99-	=99-	=99-
*xywh-#302:7200,4059,6113,941	*	*	*	*	*	*	*	*	*
2E/	.	2B-/	.	2G/	.	1r	.	1ee	-bis
2C/	.	2c/	.	1g	.	.	.	.	.
1D	-cem	1A	.	.	.	2rc	.	2.dd\	pa-
.	.	.	.	2f\	.	2d/	do-	.	.
.	.	.	.	.	.	.	.	4cc\	.
=100-	=100-	=100-	=100-	=100-	=100-	=100-	=100-	=100-	=100-
!LO:TX:t=P:problem=kreska pseudotaktowa	!	!LO:TX:t=P:problem=kreska pseudotaktowa	!	!LO:TX:t=P:problem=kreska pseudotaktowa	!	!	!	!	!
1G	.	1G	-cem	0g	-cem	2d/	-na	4b-/	.
.	.	.	.	.	.	.	.	4a/	.
.	.	.	.	.	.	2d/	no-	2dd\	.
!LO:TX:t=P:problem=kreska pseudotaktowa	!	!	!	!	!	!	!	!	!
1rA	.	2re	.	.	.	1e	.	4cc\	.
.	.	.	.	.	.	.	.	4b-\	.
.	.	1g\	do-	.	.	.	.	4a/	.
.	.	.	.	.	.	.	.	4g/	.
=101-	=101-	=101-	=101-	=101-	=101-	=101-	=101-	=101-	=101-
*	*ij	*	*	*	*	*	*	*	*
*	*	*	*	*	*	*	*	*custos:g	*
*	*	*	*	*custos:d	*	*	*	*	*
!	!	!	!	!LO:TX:t=P:problem=kreska pseudotaktowa	!	!	!	!	!
!	!	!	!	!	!	!LO:TX:t=P:problem=kreska pseudotaktowa	!	!LO:TX:t=P:problem=kreska pseudotaktowa	!
1D	pa-	.	.	0r	.	1d	-bis	1a	.
.	.	2f\	na	.	.	.	.	.	.
*	*	*	*	*	*	*	*	*xywh-#55:7140,1191,5759,616	*
!	!	!	!	!	!	!	!	!LO:LB:g=original	!
2G/	.	1g	no-	.	.	2G/	pa-	4g/	.
.	.	.	.	.	.	.	.	4a/	.
1G/	.	.	.	.	.	4d/	.	4b-/	.
.	.	.	.	.	.	4e/	.	4cc/	.
!	!	!	!	!LO:LB:g=original	!	!	!	!	!
=102-	=102-	=102-	=102-	=102-	=102-	=102-	=102-	=102-	=102-
*	*	*	*	*xywh-#216:1197,2586,6010,751	*	*	*	*	*
!	!	!LO:TX:t=P:problem=kreska pseudotaktowa	!	!	!	!	!	!	!
.	.	1d	-bis	2r	.	4f\	.	4dd\	.
.	.	.	.	.	.	4g\	.	4ee\	.
!LO:TX:t=P:problem=kreska pseudotaktowa	!	!	!	!	!	!	!	!	!
2F/	.	.	.	2d\	do-	1a	.	1ff	.
1B-	-cem	1rc	.	2d\	-na	.	.	.	.
*	*Xij	*	*	*	*	*	*	*	*
.	.	.	.	2d\	no-	2g\	.	4ee\	.
!	!	!	!	!	!	!	!	!LO:TX:t=P:problem=kreska pseudotaktowa	!
.	.	.	.	.	.	.	.	4dd\	.
=103-	=103-	=103-	=103-	=103-	=103-	=103-	=103-	=103-	=103-
!LO:TX:t=P:problem=kreska pseudotaktowa	!	!	!	!	!	!LO:TX:t=P:problem=kreska pseudotaktowa	!	!	!
1A	.	2rA	.	1f	.	1a	-cem	2cc\	.
.	.	2A/	do-	.	.	.	.	1dd	.
!LO:TX:t=P:problem=kreska pseudotaktowa	!	!	!	!LO:TX:t=P:problem=kreska pseudotaktowa	!	!	!	!	!
1rA	.	2A/	.	1e	-bis	2rg	.	.	.
.	.	2A/	-na	.	.	1a\	Do-	2cc\	.
=104-	=104-	=104-	=104-	=104-	=104-	=104-	=104-	=104-	=104-
*	*	*	*	*	*ij	*	*	*	*
!	!	!	!	!	!	!	!	!LO:TX:t=P:problem=kreska pseudotaktowa	!
1D	do-	1B-	no-	1.d	do-	.	.	0dd	-cem
.	.	.	.	.	.	1g	.	.	.
!	!	!LO:TX:t=P:problem=kreska pseudotaktowa	!	!	!	!	!	!	!
2D/	-na	1A	-bis	.	.	.	.	.	.
2D/	no-	.	.	2d\	-na	2f\	.	.	.
=105-	=105-	=105-	=105-	=105-	=105-	=105-	=105-	=105-	=105-
!LO:TX:t=P:problem=kreska pseudotaktowa	!	!	!	!	!	!	!	!	!
1E	-bis	2.G/	pa-	2B-/	no-	1g	-na	1rff	.
.	.	.	.	2c/	-bis	.	.	.	.
*	*	*	*	*	*Xij	*	*	*	*
.	.	4A/	.	.	.	.	.	.	.
2.D/	pa-	4B-/	.	1d	pa-	1.f	no-	2r	.
.	.	4c/	.	.	.	.	.	.	.
*	*	*	*	*	*	*	*	*	*ij
.	.	1d\	.	.	.	.	.	2a/	Do-
!LO:TX:t=P:problem=kreska pseudotaktowa	!	!	!	!	!	!	!	!	!
4E/	.	.	.	.	.	.	.	.	.
=106-	=106-	=106-	=106-	=106-	=106-	=106-	=106-	=106-	=106-
!	!	!	!	!LO:TX:t=P:problem=kreska pseudotaktowa	!	!	!	!	!
4F/	.	.	.	1A	-cem	.	.	2a/	-na
4G/	.	.	.	.	.	.	.	.	.
!	!	!	!	!	!	!LO:TX:t=P:problem=kreska pseudotaktowa	!	!LO:TX:t=P:problem=kreska pseudotaktowa	!
1A	.	2c\	.	.	.	2e\	-bis	2a/	no-
.	.	2d\	.	1rc	.	2g\	.	1b-	-bis
1G/	.	2G/	.	.	.	2.d/	pa-	.	.
=107-	=107-	=107-	=107-	=107-	=107-	=107-	=107-	=107-	=107-
.	.	1A	.	2r	.	.	.	1a	pa-
.	.	.	.	.	.	4e/	.	.	.
2F/	.	.	.	2d\	do-	2f\	.	.	.
!	!	!	!	!	!	!	!	!LO:TX:t=P:problem=kreska pseudotaktowa	!
1G	.	1B-	.	2d\	-na	2B-/	.	1g	-cem
.	.	.	.	2d\	no-	2b-\	.	.	.
=108-	=108-	=108-	=108-	=108-	=108-	=108-	=108-	=108-	=108-
*lig	*	*lig	*	*	*	*	*	*	*Xij
1C	-cem	1c	.	1e	.	2a\	.	1rff	.
.	.	.	.	.	.	1g	.	.	.
!LO:TX:t=P:problem=kreska pseudotaktowa	!	!	!	!LO:TX:t=P:problem=kreska pseudotaktowa	!	!	!	!	!
1D	.	1A	.	1d	-bis	.	.	2r	.
.	.	.	.	.	.	2f\	.	2dd\	Do-
*Xlig	*	*Xlig	*	*	*	*	*	*	*
=109-	=109-	=109-	=109-	=109-	=109-	=109-	=109-	=109-	=109-
*	*ij	*	*	*	*	*	*	*	*
!	!	!LO:TX:t=P:problem=kreska pseudotaktowa	!	!	!	!	!	!	!
1.G	do-	1G	-cem	1B-	pa-	2g,<\	-cem	2.dd\	-na
.	.	.	.	.	.	2d/	do-	.	.
.	.	.	.	.	.	.	.	4cc\	.
.	.	0r	.	2G/	.	2d/	-na	2b-/	no-
2F/	-na	.	.	2A/	.	2d/	no-	2.a/	-bis
=110-	=110-	=110-	=110-	=110-	=110-	=110-	=110-	=110-	=110-
2E/	no-	.	.	2B-/	.	1e	.	.	.
.	.	.	.	.	.	.	.	4g/	.
!LO:TX:t=P:problem=kreska pseudotaktowa	!	!	!	!	!	!	!	!	!
2C/	-bis	.	.	2c/	.	.	.	1g	pa-
1D	pa-	2r	.	1A	.	1d	-bis	.	.
.	.	2d\	Do-	.	.	.	.	2f#X/	.
=111-	=111-	=111-	=111-	=111-	=111-	=111-	=111-	=111-	=111-
*lig	*	*	*	*	*	*	*	*	*
!	!	!	!	!LO:SIC:v:o=[0Bnl;	!	!	!	!	!
*	*	*	*	*	*	*lig	*	*	*
1G	.	2d\	-na	0G	-cem.	1B-	pa-	[0lg;	-cem.
.	.	2d\	no-	.	.	.	.	.	.
!	!	!	!	!	!	!LO:TX:t=P:problem=kreska pseudotaktowa	!	!	!
1C	.	1e	-bis	.	.	1c	.	.	.
*Xlig	*	*	*	*	*	*Xlig	*	*	*
=112-	=112-	=112-	=112-	=112-	=112-	=112-	=112-	=112-	=112-
[0Gl;	-cem	1d	pa-	0Bn_	.	2.B-/	.	0g_	.
*	*Xij	*	*	*	*	*	*	*	*
.	.	.	.	.	.	4c/	.	.	.
.	.	[1dl;	-cem.	.	.	2d/	.	.	.
.	.	.	.	.	.	2e/	.	.	.
=113-	=113-	=113-	=113-	=113-	=113-	=113-	=113-	=113-	=113-
0G]	.	0d]	.	0Bn]	.	0dl;	-cem	0g]	.
==	==	==	==	==	==	==	==	==	==
*-	*-	*-	*-	*-	*-	*-	*-	*-	*-
!!!system-decoration: [g1]
!!!RDF**kern: > = above
!!!RDF**kern: < = below
!!!RDF**kern: l = terminal long
!!!ENC: Andrzej Kubiczek
!!!END: 2021-03-21
!!!ENC: Anastazja Marusiak
!!!END: 2021-03-11
!!!ENC-iiif: Bartosz Żurakowski
!!!END-iiif: 2022-09-16
